cubelut1.cube
#Created by: Adobe Photoshop Export Color Lookup Plugin
TITLE "e868af-GTA5 2016-04-16 19-26-14-88.jpg"
#LUT size
LUT_3D_SIZE 6
#data domain
DOMAIN_MIN 0.0 0.0 0.0
DOMAIN_MAX 1.0 1.0 1.0
#LUT data points
0.000000 0.000000 0.000000
0.108307 0.000000 0.026337
0.338776 0.019562 0.118591
0.646515 0.093109 0.243408
0.899506 0.154175 0.346191
1.000000 0.199127 0.421631
0.036682 0.113617 0.000000
0.112091 0.065369 0.000000
0.338867 0.024902 0.019958
0.646515 0.093109 0.138367
0.899506 0.154175 0.237152
1.000000 0.199127 0.310974
0.145538 0.349823 0.071655
0.267242 0.352661 0.081635
0.345673 0.218781 0.054474
0.647491 0.157227 0.099854
0.899628 0.165192 0.155273
1.000000 0.199127 0.205231
0.292908 0.665253 0.183167
0.408691 0.667358 0.191406
0.623108 0.673309 0.212860
0.657257 0.424133 0.150757
0.903992 0.360779 0.181488
1.000000 0.330627 0.213898
0.414398 0.924500 0.275330
0.527649 0.926422 0.282745
0.736298 0.931519 0.301208
0.930084 0.841492 0.296295
0.913666 0.592987 0.230469
1.000000 0.543213 0.250183
0.503815 1.000000 0.342987
0.615326 1.000000 0.350159
0.820648 1.000000 0.367279
1.000000 1.000000 0.399078
1.000000 0.897339 0.335175
1.000000 0.716736 0.288971
0.000000 0.023682 0.107117
0.057434 0.000000 0.106659
0.338776 0.019562 0.248627
0.646515 0.093109 0.371277
0.899506 0.154175 0.473022
1.000000 0.199127 0.548004
0.000000 0.113007 0.066345
0.116089 0.116089 0.116089
0.356567 0.118683 0.200531
0.683746 0.151031 0.319305
0.953430 0.195679 0.419159
1.000000 0.246796 0.502350
0.067780 0.348938 0.070923
0.218689 0.367096 0.145660
0.364166 0.275208 0.138641
0.684265 0.178406 0.153748
0.953430 0.195679 0.223969
1.000000 0.246796 0.316193
0.208374 0.664032 0.178925
0.362854 0.703369 0.228302
0.596863 0.709045 0.246979
0.696564 0.487732 0.204163
0.958344 0.396698 0.220886
1.000000 0.372040 0.260345
0.326050 0.923248 0.270844
0.483826 0.980316 0.313354
0.709412 0.984924 0.330139
0.989929 0.946198 0.346680
0.969971 0.662415 0.273712
1.000000 0.593475 0.295563
0.413544 1.000000 0.338440
0.572632 1.000000 0.373993
0.772003 1.000000 0.388306
1.000000 1.000000 0.416290
1.000000 0.951538 0.376678
1.000000 0.769745 0.332520
0.000000 0.106689 0.334503
0.000000 0.000000 0.331787
0.200989 0.000000 0.334686
0.646515 0.093109 0.593536
0.899506 0.154175 0.693298
1.000000 0.199127 0.766815
0.034485 0.252106 0.341461
0.111450 0.195801 0.353821
0.260651 0.109833 0.353363
0.683746 0.151031 0.565430
0.953430 0.195679 0.662109
1.000000 0.246796 0.717041
0.067780 0.348938 0.223877
0.142120 0.365662 0.277100
0.355438 0.355438 0.355438
0.674286 0.353973 0.467010
0.941498 0.364594 0.562164
1.000000 0.412903 0.643616
0.177643 0.663757 0.217346
0.221436 0.701355 0.239807
0.490906 0.690125 0.385803
0.686401 0.568359 0.378540
0.945129 0.469421 0.375214
1.000000 0.444702 0.415833
0.268372 0.922699 0.274597
0.324280 0.977936 0.305450
0.606537 0.966278 0.432526
0.927856 0.975494 0.455475
0.959229 0.743164 0.414368
1.000000 0.676575 0.443512
0.338806 1.000000 0.335205
0.415222 1.000000 0.365936
0.695831 1.000000 0.494354
0.976746 1.000000 0.513397
1.000000 1.000000 0.507507
1.000000 0.855804 0.472321
0.022888 0.218384 0.638031
0.000000 0.073914 0.635223
0.092407 0.000000 0.634705
0.393097 0.032410 0.638947
0.802734 0.130798 0.896027
1.000000 0.199127 1.000000
0.073883 0.365997 0.643585
0.114594 0.302582 0.676697
0.118591 0.081879 0.671570
0.457458 0.114838 0.676727
0.905884 0.185883 0.951691
1.000000 0.246796 1.000000
0.157898 0.607483 0.658905
0.184021 0.574860 0.691345
0.347870 0.462280 0.671204
0.547638 0.345276 0.669861
0.941498 0.364594 0.891418
1.000000 0.412903 0.933441
0.177643 0.663757 0.434387
0.221436 0.701355 0.495026
0.380920 0.687744 0.569824
0.675201 0.675201 0.675201
0.934509 0.670898 0.765503
1.000000 0.697174 0.841034
0.268372 0.922699 0.411133
0.304565 0.977753 0.447571
0.424133 0.962921 0.508514
0.785004 0.949829 0.693359
0.946930 0.850098 0.688904
1.000000 0.787231 0.705566
0.335083 1.000000 0.418488
0.363892 1.000000 0.449341
0.484283 1.000000 0.508942
0.870636 1.000000 0.734070
1.000000 1.000000 0.746613
1.000000 0.969574 0.726135
0.054321 0.310059 0.887695
0.005371 0.163391 0.884796
0.007843 0.000000 0.883240
0.302521 0.011292 0.885101
0.550873 0.070068 0.889069
0.850800 0.142273 1.000000
0.106110 0.459167 0.892822
0.124603 0.390320 0.942841
0.070587 0.123474 0.937225
0.338196 0.086456 0.938507
0.619690 0.129913 0.943451
0.906311 0.212585 1.000000
0.191071 0.701721 0.905731
0.203766 0.664276 0.954956
0.345245 0.550354 0.935150
0.429413 0.322449 0.928070
0.708405 0.341675 0.933929
0.998718 0.402740 1.000000
0.268372 0.922699 0.833038
0.304565 0.977753 0.933563
0.412079 0.909607 0.958435
0.667908 0.763123 0.932587
0.832062 0.665466 0.930847
1.000000 0.697174 1.000000
0.268372 0.922699 0.607788
0.304565 0.977753 0.674835
0.424133 0.962921 0.748230
0.689484 0.947205 0.850616
0.938080 0.938080 0.938080
1.000000 0.945557 1.000000
0.335083 1.000000 0.585052
0.363892 1.000000 0.628113
0.484283 1.000000 0.702545
0.727905 1.000000 0.806793
1.000000 1.000000 0.958923
1.000000 1.000000 0.956635
0.077789 0.377441 1.000000
0.026764 0.229767 1.000000
0.000000 0.000793 1.000000
0.236969 0.000000 1.000000
0.484283 0.054016 1.000000
0.666901 0.097809 1.000000
0.129791 0.526917 1.000000
0.177185 0.472870 1.000000
0.130219 0.234741 1.000000
0.293121 0.126495 1.000000
0.539673 0.153259 1.000000
0.722198 0.180511 1.000000
0.215118 0.770691 1.000000
0.241608 0.715576 1.000000
0.388489 0.629059 1.000000
0.390381 0.356903 1.000000
0.633728 0.370209 1.000000
0.815216 0.384583 1.000000
0.327637 1.000000 1.000000
0.339050 1.000000 1.000000
0.446838 0.947052 1.000000
0.691376 0.836273 1.000000
0.763641 0.678802 1.000000
0.942688 0.687683 1.000000
0.335083 1.000000 0.897278
0.363892 1.000000 0.947266
0.484283 1.000000 1.000000
0.724274 1.000000 1.000000
0.944366 1.000000 1.000000
1.000000 0.942749 1.000000
0.335083 1.000000 0.734863
0.363892 1.000000 0.782257
0.484283 1.000000 0.862030
0.727905 1.000000 0.970673
0.956482 1.000000 1.000000
1.000000 1.000000 1.000000
