cubelut1.cube
#Created by: Adobe Photoshop Export Color Lookup Plugin
TITLE "e868af-GTA5 2016-04-16 19-26-14-88.jpg"
#LUT size
LUT_3D_SIZE 16
#data domain
DOMAIN_MIN 0.0 0.0 0.0
DOMAIN_MAX 1.0 1.0 1.0
#LUT data points
0.000000 0.000000 0.000000
0.008179 0.000000 0.000000
0.052917 0.000000 0.004822
0.108307 0.000000 0.026337
0.174591 0.000000 0.052582
0.251434 0.001434 0.083374
0.338776 0.019562 0.118591
0.436829 0.042816 0.158173
0.544434 0.068420 0.201965
0.646515 0.093109 0.243408
0.738861 0.115295 0.280823
0.822968 0.135712 0.315063
0.899506 0.154175 0.346191
0.968689 0.170837 0.374481
1.000000 0.186066 0.399597
1.000000 0.199127 0.421631
0.000000 0.010590 0.000000
0.010132 0.000000 0.000000
0.053284 0.000000 0.000000
0.108307 0.000000 0.000000
0.174591 0.000000 0.021942
0.251434 0.001434 0.052704
0.338776 0.019562 0.087860
0.436829 0.042816 0.127380
0.544434 0.068420 0.170685
0.646515 0.093109 0.212128
0.738861 0.115295 0.249634
0.822968 0.135712 0.283905
0.899506 0.154175 0.314880
0.968689 0.170837 0.342987
1.000000 0.186066 0.368317
1.000000 0.199127 0.390320
0.010681 0.056702 0.000000
0.043335 0.057495 0.000000
0.055725 0.028198 0.000000
0.109589 0.013000 0.000000
0.174927 0.000000 0.000000
0.251434 0.001434 0.017639
0.338776 0.019562 0.053925
0.436829 0.042816 0.092407
0.544434 0.068420 0.135101
0.646515 0.093109 0.175873
0.738861 0.115295 0.213135
0.822968 0.135712 0.246979
0.899506 0.154175 0.277924
0.968689 0.170837 0.305664
1.000000 0.186066 0.330963
1.000000 0.199127 0.352753
0.036682 0.113617 0.000000
0.068207 0.114502 0.000000
0.111389 0.115845 0.000092
0.112091 0.065369 0.000000
0.176300 0.047424 0.000000
0.251984 0.034241 0.004425
0.338867 0.024902 0.019958
0.436829 0.042816 0.059448
0.544434 0.068420 0.099670
0.646515 0.093109 0.138367
0.738861 0.115295 0.174164
0.822968 0.135712 0.207275
0.899506 0.154175 0.237152
0.968689 0.170837 0.264526
1.000000 0.186066 0.289307
1.000000 0.199127 0.310974
0.067688 0.181519 0.013245
0.098633 0.182281 0.015656
0.140869 0.183258 0.019440
0.184052 0.175079 0.021545
0.179260 0.109406 0.005188
0.253662 0.088745 0.012085
0.339905 0.072510 0.025726
0.437256 0.066010 0.045013
0.544434 0.068420 0.068848
0.646515 0.093109 0.107330
0.738861 0.115295 0.139404
0.822968 0.135712 0.169708
0.899506 0.154175 0.197968
0.968689 0.170837 0.223907
1.000000 0.186066 0.247498
1.000000 0.199127 0.268127
0.104065 0.260315 0.040314
0.134277 0.260803 0.042572
0.175446 0.261902 0.046112
0.227966 0.263489 0.051483
0.262268 0.236328 0.047577
0.257080 0.160645 0.027618
0.341858 0.137085 0.036438
0.438202 0.117706 0.051727
0.544983 0.107452 0.072540
0.646729 0.109802 0.094666
0.738892 0.118195 0.115540
0.822968 0.135712 0.142242
0.899506 0.154175 0.167267
0.968689 0.170837 0.190216
1.000000 0.186066 0.211426
1.000000 0.199127 0.230286
0.145538 0.349823 0.071655
0.175262 0.350281 0.073822
0.215515 0.351257 0.076813
0.267242 0.352661 0.081635
0.329987 0.354645 0.088593
0.351318 0.304504 0.077148
0.345673 0.218781 0.054474
0.440765 0.192261 0.064575
0.546417 0.170074 0.080994
0.647491 0.157227 0.099854
0.739380 0.153625 0.119049
0.823242 0.157135 0.137726
0.899628 0.165192 0.155273
0.968750 0.174408 0.171387
1.000000 0.186066 0.188080
1.000000 0.199127 0.205231
0.192291 0.450348 0.107086
0.221710 0.450775 0.109100
0.261108 0.451630 0.111877
0.311646 0.452728 0.116364
0.373596 0.454437 0.122375
0.446991 0.456848 0.130890
0.451050 0.380219 0.110077
0.444946 0.284180 0.085083
0.549103 0.255035 0.096130
0.649384 0.232635 0.111023
0.740784 0.217499 0.127167
0.824310 0.209137 0.143433
0.900238 0.205994 0.159393
0.969299 0.206787 0.174316
1.000000 0.210876 0.188324
1.000000 0.216339 0.200745
0.243896 0.560425 0.146149
0.272858 0.561066 0.148071
0.311523 0.561707 0.150696
0.361115 0.562866 0.154572
0.422089 0.564209 0.160156
0.494537 0.566589 0.167908
0.568298 0.559479 0.173859
0.560364 0.461090 0.145874
0.553955 0.355865 0.118713
0.652802 0.327911 0.128998
0.743225 0.305969 0.141388
0.826202 0.289429 0.154724
0.901764 0.277496 0.168427
0.970337 0.269775 0.181641
1.000000 0.265442 0.194244
1.000000 0.263611 0.205719
0.292908 0.665253 0.183167
0.321503 0.665649 0.184937
0.359955 0.666229 0.187714
0.408691 0.667358 0.191406
0.468689 0.668762 0.196594
0.540222 0.670776 0.203613
0.623108 0.673309 0.212860
0.671387 0.630737 0.206146
0.663452 0.523315 0.176117
0.657257 0.424133 0.150757
0.746735 0.398590 0.159760
0.828888 0.377441 0.170319
0.903992 0.360779 0.181488
0.972229 0.347687 0.192963
1.000000 0.337585 0.203918
1.000000 0.330627 0.213898
0.337219 0.759857 0.216919
0.365784 0.760406 0.218658
0.403656 0.761078 0.221069
0.452057 0.761932 0.224670
0.511292 0.763275 0.229614
0.581909 0.765106 0.236267
0.664093 0.767456 0.244690
0.757843 0.770752 0.255798
0.763428 0.676788 0.230164
0.756195 0.575287 0.202515
0.751160 0.485748 0.179840
0.832336 0.462158 0.187897
0.906891 0.442719 0.196960
0.974792 0.426544 0.206390
1.000000 0.413361 0.215912
1.000000 0.403046 0.224701
0.377625 0.846069 0.247528
0.405975 0.846527 0.249268
0.443604 0.847260 0.251648
0.491394 0.848022 0.255096
0.550262 0.849335 0.259918
0.620331 0.851105 0.266083
0.701691 0.853333 0.274353
0.794830 0.856415 0.284607
0.855042 0.817047 0.280304
0.847107 0.714447 0.251221
0.841034 0.623230 0.226807
0.836243 0.541840 0.206268
0.910065 0.520416 0.213440
0.977509 0.502197 0.221191
1.000000 0.487213 0.229431
1.000000 0.474670 0.237030
0.414398 0.924500 0.275330
0.442780 0.924896 0.277039
0.480011 0.925507 0.279572
0.527649 0.926422 0.282745
0.585724 0.927765 0.287415
0.655090 0.929230 0.293335
0.736298 0.931519 0.301208
0.828766 0.934265 0.311188
0.931763 0.937866 0.323547
0.930084 0.841492 0.296295
0.923218 0.749481 0.270691
0.917816 0.666992 0.248932
0.913666 0.592987 0.230469
0.980713 0.573425 0.236816
1.000000 0.556915 0.243683
1.000000 0.543213 0.250183
0.447754 0.995605 0.300598
0.475952 0.995972 0.302307
0.513184 0.996521 0.304688
0.560272 0.997528 0.307953
0.618073 0.998535 0.312469
0.687012 1.000000 0.318298
0.767334 1.000000 0.325775
0.859436 1.000000 0.335297
0.962097 1.000000 0.347260
1.000000 0.957001 0.337524
0.998230 0.864136 0.311127
0.992401 0.781006 0.288269
0.987732 0.705902 0.268860
0.983978 0.639282 0.252106
1.000000 0.621521 0.257965
1.000000 0.607056 0.263672
0.477753 1.000000 0.323425
0.505737 1.000000 0.324921
0.542725 1.000000 0.327393
0.589661 1.000000 0.330658
0.647125 1.000000 0.334869
0.715851 1.000000 0.340515
0.795807 1.000000 0.347839
0.887268 1.000000 0.357117
0.989380 1.000000 0.368500
1.000000 1.000000 0.374969
1.000000 0.967529 0.347839
1.000000 0.883362 0.324280
1.000000 0.807892 0.303986
1.000000 0.740448 0.286469
1.000000 0.680664 0.271729
1.000000 0.665436 0.276733
0.503815 1.000000 0.342987
0.531708 1.000000 0.344666
0.568787 1.000000 0.347137
0.615326 1.000000 0.350159
0.672607 1.000000 0.354553
0.740875 1.000000 0.360107
0.820648 1.000000 0.367279
0.911652 1.000000 0.376129
1.000000 1.000000 0.387451
1.000000 1.000000 0.399078
1.000000 1.000000 0.380188
1.000000 0.973450 0.356262
1.000000 0.897339 0.335175
1.000000 0.829132 0.317047
1.000000 0.768799 0.301727
1.000000 0.716736 0.288971
0.000000 0.000000 0.008087
0.000000 0.000000 0.007782
0.052917 0.000000 0.037903
0.108307 0.000000 0.059692
0.174591 0.000000 0.085785
0.251434 0.001434 0.116547
0.338776 0.019562 0.151642
0.436829 0.042816 0.191132
0.544434 0.068420 0.234650
0.646515 0.093109 0.276001
0.738861 0.115295 0.313416
0.822968 0.135712 0.347565
0.899506 0.154175 0.378754
0.968689 0.170837 0.406769
1.000000 0.186066 0.432098
1.000000 0.199127 0.454132
0.000000 0.010010 0.000000
0.011353 0.011353 0.011353
0.057526 0.010742 0.027435
0.116394 0.011505 0.047913
0.186584 0.015533 0.072876
0.268372 0.023621 0.102509
0.361603 0.036957 0.136627
0.466125 0.055511 0.175354
0.581024 0.078369 0.218140
0.685791 0.102509 0.259155
0.778290 0.124939 0.296906
0.862518 0.145233 0.331238
0.939148 0.163696 0.362366
1.000000 0.180664 0.390503
1.000000 0.195618 0.415863
1.000000 0.208130 0.442596
0.000000 0.055878 0.000000
0.030823 0.060272 0.014740
0.059631 0.042175 0.013977
0.116669 0.020935 0.012482
0.186584 0.015533 0.029114
0.268372 0.023621 0.058594
0.361603 0.036957 0.092682
0.466125 0.055511 0.131531
0.581024 0.078369 0.174225
0.685791 0.102509 0.216095
0.778290 0.124939 0.254242
0.862518 0.145233 0.288727
0.939148 0.163696 0.320068
1.000000 0.180664 0.348419
1.000000 0.195618 0.373810
1.000000 0.208130 0.402496
0.005554 0.113159 0.000000
0.055695 0.120972 0.022980
0.103241 0.122345 0.026062
0.119873 0.080750 0.019928
0.187897 0.055542 0.019745
0.268768 0.036133 0.024841
0.361603 0.036957 0.049866
0.466125 0.055511 0.086914
0.581024 0.078369 0.128662
0.685791 0.102509 0.169647
0.778290 0.124939 0.207489
0.862518 0.145233 0.241730
0.939148 0.163696 0.272980
1.000000 0.180664 0.301147
1.000000 0.195618 0.326477
1.000000 0.208130 0.356873
0.040771 0.181122 0.011688
0.086334 0.193481 0.037750
0.132538 0.194641 0.040771
0.192291 0.196564 0.046204
0.191406 0.126190 0.031219
0.270447 0.097473 0.032776
0.362335 0.074310 0.040985
0.466370 0.064636 0.056458
0.581024 0.078369 0.090515
0.685791 0.102509 0.127747
0.778290 0.124939 0.162903
0.862518 0.145233 0.195435
0.939148 0.163696 0.225525
1.000000 0.180664 0.252869
1.000000 0.195618 0.277374
1.000000 0.208130 0.307953
0.077454 0.259949 0.038757
0.122284 0.277405 0.059082
0.167084 0.278473 0.062225
0.225739 0.280090 0.067291
0.280548 0.265564 0.068909
0.274445 0.179260 0.048279
0.364471 0.146637 0.051758
0.467407 0.119598 0.062683
0.581543 0.106049 0.081207
0.685883 0.109741 0.103119
0.778290 0.124939 0.130798
0.862518 0.145233 0.159546
0.939148 0.163696 0.185944
1.000000 0.180664 0.210693
1.000000 0.195618 0.233276
1.000000 0.208130 0.260468
0.118958 0.349457 0.070282
0.163727 0.373199 0.087097
0.207550 0.373901 0.090149
0.264435 0.375305 0.094910
0.335083 0.377350 0.101929
0.375458 0.337128 0.095428
0.368744 0.239441 0.070801
0.470001 0.202972 0.076355
0.582733 0.171967 0.089508
0.686554 0.156006 0.108002
0.778656 0.152985 0.127563
0.862671 0.158813 0.146545
0.939209 0.167938 0.164246
1.000000 0.180664 0.183472
1.000000 0.195618 0.203430
1.000000 0.208130 0.221985
0.166016 0.449982 0.105652
0.210907 0.480377 0.121185
0.253265 0.481262 0.123962
0.308990 0.482269 0.128326
0.378235 0.484100 0.134674
0.460846 0.486877 0.143738
0.481934 0.416077 0.126892
0.474762 0.307129 0.098785
0.585846 0.267120 0.105927
0.688446 0.236877 0.119385
0.779999 0.218262 0.135193
0.863647 0.208588 0.151886
0.939697 0.205811 0.167938
1.000000 0.207703 0.183105
1.000000 0.212982 0.197235
1.000000 0.220764 0.209351
0.217346 0.560089 0.144714
0.262543 0.598206 0.160065
0.304138 0.598816 0.162811
0.358612 0.599976 0.166779
0.426392 0.601410 0.172546
0.507599 0.603851 0.180847
0.602142 0.607056 0.191833
0.598663 0.500580 0.162231
0.591125 0.381165 0.131165
0.692078 0.342651 0.138733
0.782501 0.313812 0.150299
0.865570 0.293274 0.163239
0.941223 0.278992 0.176880
1.000000 0.270111 0.190125
1.000000 0.265503 0.202759
1.000000 0.271790 0.214630
0.266357 0.664642 0.181641
0.311646 0.705383 0.197449
0.352264 0.706146 0.200165
0.405121 0.707062 0.203888
0.470978 0.708557 0.209259
0.550201 0.710571 0.216675
0.642609 0.713379 0.226501
0.713043 0.682343 0.225616
0.703979 0.561737 0.191742
0.697205 0.450348 0.163086
0.786255 0.415680 0.170197
0.868347 0.388519 0.179626
0.943512 0.367798 0.190338
1.000000 0.351807 0.201508
1.000000 0.340118 0.212433
1.000000 0.341278 0.223145
0.310883 0.759521 0.215363
0.356354 0.800354 0.231262
0.395874 0.800934 0.233673
0.447388 0.802002 0.237183
0.511627 0.803223 0.242249
0.588989 0.805023 0.249176
0.678955 0.807739 0.258301
0.782166 0.811249 0.270081
0.804810 0.723572 0.248169
0.796844 0.611359 0.217346
0.791016 0.512054 0.192169
0.872040 0.481323 0.198730
0.946594 0.456146 0.206635
1.000000 0.436218 0.215607
1.000000 0.420044 0.224701
1.000000 0.415070 0.234070
0.351318 0.845703 0.246002
0.396820 0.886719 0.261993
0.435852 0.887238 0.264282
0.486420 0.888245 0.267731
0.549286 0.889343 0.272614
0.624878 0.891144 0.278900
0.713440 0.893646 0.287567
0.815186 0.896698 0.298676
0.897156 0.869904 0.300171
0.888367 0.757477 0.268066
0.881439 0.657440 0.241089
0.876251 0.568420 0.218750
0.950073 0.540649 0.224518
1.000000 0.517731 0.231506
1.000000 0.499054 0.238922
1.000000 0.487610 0.246307
0.388000 0.924164 0.273804
0.433594 0.965210 0.289825
0.472321 0.965790 0.292114
0.522156 0.966553 0.295410
0.584015 0.967834 0.300110
0.658478 0.969543 0.306183
0.745697 0.971741 0.314484
0.845764 0.974792 0.324860
0.957306 0.978607 0.338135
0.971832 0.890045 0.314819
0.964355 0.789673 0.286896
0.958496 0.699768 0.262878
0.954041 0.619415 0.242798
1.000000 0.594757 0.248108
1.000000 0.574127 0.254242
1.000000 0.556427 0.259491
0.421326 0.995087 0.299103
0.466980 1.000000 0.315155
0.505219 1.000000 0.317383
0.554535 1.000000 0.320679
0.615723 1.000000 0.325226
0.689087 1.000000 0.331116
0.775055 1.000000 0.338867
0.874054 1.000000 0.349030
0.984741 1.000000 0.361359
1.000000 1.000000 0.357391
1.000000 0.909210 0.328613
1.000000 0.819031 0.303925
1.000000 0.738037 0.282593
1.000000 0.665741 0.264679
1.000000 0.643616 0.269440
1.000000 0.620697 0.272919
0.451172 1.000000 0.321869
0.496826 1.000000 0.337982
0.534912 1.000000 0.340210
0.583771 1.000000 0.343292
0.644348 1.000000 0.347656
0.716888 1.000000 0.353394
0.802307 1.000000 0.360901
0.900116 1.000000 0.370636
1.000000 1.000000 0.382660
1.000000 1.000000 0.395416
1.000000 1.000000 0.366516
1.000000 0.925873 0.341003
1.000000 0.844299 0.319031
1.000000 0.771759 0.300262
1.000000 0.707184 0.284302
1.000000 0.679138 0.285858
0.477264 1.000000 0.341705
0.521240 1.000000 0.349060
0.557709 1.000000 0.351227
0.603821 1.000000 0.354156
0.660400 1.000000 0.358337
0.728149 1.000000 0.363708
0.807648 1.000000 0.370453
0.898376 1.000000 0.379211
0.999939 1.000000 0.390076
1.000000 1.000000 0.401459
1.000000 1.000000 0.388611
1.000000 0.987732 0.364716
1.000000 0.911652 0.344025
1.000000 0.843506 0.326050
1.000000 0.782990 0.310760
1.000000 0.730865 0.298065
0.000000 0.004272 0.052307
0.000000 0.000000 0.050690
0.022949 0.000000 0.051880
0.108307 0.000000 0.103851
0.174591 0.000000 0.129669
0.251434 0.001434 0.159943
0.338776 0.019562 0.194824
0.436829 0.042816 0.234070
0.544434 0.068420 0.277100
0.646515 0.093109 0.318451
0.738861 0.115295 0.355682
0.822968 0.135712 0.389862
0.899506 0.154175 0.420746
0.968689 0.170837 0.448914
1.000000 0.186066 0.474060
1.000000 0.199127 0.496277
0.000000 0.039978 0.054688
0.009979 0.026733 0.057190
0.039215 0.009644 0.056976
0.116394 0.011505 0.096405
0.186584 0.015533 0.121277
0.268372 0.023621 0.150574
0.361603 0.036957 0.184387
0.466125 0.055511 0.222534
0.581024 0.078369 0.264923
0.685791 0.102509 0.305389
0.778290 0.124939 0.342255
0.862518 0.145233 0.375885
0.939148 0.163696 0.406769
1.000000 0.180664 0.434601
1.000000 0.195618 0.459839
1.000000 0.208130 0.484039
0.000000 0.055878 0.028442
0.014160 0.059845 0.042419
0.058075 0.058075 0.058075
0.115295 0.057159 0.077972
0.184784 0.058228 0.102386
0.266144 0.062256 0.131287
0.359009 0.070404 0.164856
0.463440 0.083282 0.202942
0.578156 0.101196 0.245300
0.686981 0.120941 0.285645
0.785736 0.140381 0.322327
0.875549 0.159149 0.355743
0.957153 0.176666 0.386353
1.000000 0.192688 0.414032
1.000000 0.207367 0.440277
1.000000 0.221924 0.469177
0.000000 0.113007 0.020844
0.021393 0.120392 0.029205
0.082153 0.118591 0.062317
0.118011 0.096619 0.061188
0.185211 0.070343 0.059235
0.266144 0.062256 0.076416
0.359009 0.070404 0.109894
0.463440 0.083282 0.148376
0.578156 0.101196 0.190887
0.686981 0.120941 0.231384
0.785736 0.140381 0.268188
0.875549 0.159149 0.301941
0.957153 0.176666 0.332520
1.000000 0.192688 0.360291
1.000000 0.207367 0.387390
1.000000 0.221924 0.419983
0.010437 0.180817 0.017883
0.046753 0.192871 0.035675
0.111786 0.190979 0.071350
0.170502 0.192444 0.074860
0.189423 0.142181 0.068115
0.267853 0.112213 0.067535
0.359344 0.086395 0.071747
0.463440 0.083282 0.093964
0.578156 0.101196 0.135376
0.686981 0.120941 0.175232
0.785736 0.140381 0.211548
0.875549 0.159149 0.244781
0.957153 0.176666 0.275146
1.000000 0.192688 0.302612
1.000000 0.207367 0.330109
1.000000 0.221924 0.365967
0.049683 0.259491 0.037567
0.083618 0.276886 0.057037
0.147064 0.274780 0.086792
0.204285 0.276276 0.090485
0.275238 0.278503 0.096344
0.272400 0.195313 0.080048
0.361969 0.161530 0.081207
0.464478 0.132141 0.088379
0.578339 0.114594 0.102509
0.686981 0.120941 0.127258
0.785736 0.140381 0.160828
0.875549 0.159149 0.191956
0.957153 0.176666 0.220703
1.000000 0.192688 0.247284
1.000000 0.207367 0.273712
1.000000 0.221924 0.309540
0.091980 0.349152 0.068909
0.125854 0.372528 0.085052
0.187866 0.370239 0.109192
0.243591 0.371552 0.112885
0.313110 0.373474 0.118561
0.373718 0.353699 0.119446
0.366608 0.255524 0.097595
0.467316 0.218140 0.100739
0.579987 0.185028 0.110657
0.687927 0.165039 0.125427
0.785980 0.158661 0.142059
0.875610 0.162506 0.159424
0.957153 0.176666 0.181213
1.000000 0.192688 0.204376
1.000000 0.207367 0.226990
1.000000 0.221924 0.256805
0.137848 0.449432 0.104187
0.173462 0.479889 0.119049
0.234222 0.477600 0.138367
0.288269 0.478516 0.141968
0.356537 0.480255 0.147430
0.438293 0.482666 0.155426
0.480133 0.432831 0.146973
0.472595 0.323364 0.121002
0.583313 0.282227 0.126038
0.689972 0.249847 0.136566
0.787415 0.227631 0.150024
0.876373 0.214844 0.164734
0.957825 0.209869 0.179657
1.000000 0.211182 0.194427
1.000000 0.216980 0.208099
1.000000 0.227356 0.222351
0.188538 0.559753 0.143158
0.225647 0.597504 0.158020
0.285400 0.595154 0.173737
0.338409 0.596283 0.177277
0.404877 0.597534 0.182434
0.485474 0.599915 0.189758
0.579620 0.602875 0.199707
0.596771 0.517334 0.179260
0.588898 0.397461 0.149994
0.693817 0.358398 0.155640
0.790100 0.327301 0.164886
0.878662 0.303619 0.176300
0.959167 0.286346 0.188599
1.000000 0.275146 0.201233
1.000000 0.271606 0.213654
1.000000 0.282776 0.227875
0.236938 0.664337 0.180328
0.275208 0.704895 0.195465
0.334381 0.706909 0.209381
0.386353 0.707947 0.212799
0.451843 0.709137 0.217499
0.530762 0.711090 0.224426
0.623627 0.713959 0.233734
0.716034 0.703461 0.240601
0.706421 0.581360 0.207428
0.699249 0.467896 0.179260
0.794342 0.432312 0.184784
0.881622 0.402954 0.193024
0.961792 0.379181 0.202515
1.000000 0.360565 0.212921
1.000000 0.349487 0.223541
1.000000 0.355072 0.236694
0.280914 0.759155 0.213776
0.320221 0.799927 0.229309
0.378784 0.808075 0.242523
0.430054 0.808868 0.245850
0.494568 0.810211 0.250610
0.572510 0.812012 0.256989
0.664276 0.814606 0.265839
0.769806 0.817902 0.277283
0.813843 0.749420 0.263489
0.805420 0.633972 0.232269
0.799103 0.531799 0.206909
0.885498 0.499207 0.212311
0.964783 0.471680 0.219208
1.000000 0.449036 0.227417
1.000000 0.432526 0.236237
1.000000 0.430237 0.247620
0.320984 0.845367 0.244385
0.360901 0.886292 0.260010
0.419312 0.900146 0.273407
0.470001 0.901001 0.276611
0.533539 0.902161 0.281036
0.610657 0.903900 0.287354
0.701569 0.906158 0.295593
0.806122 0.909424 0.306519
0.912292 0.902740 0.316345
0.902679 0.786102 0.283447
0.895660 0.682465 0.255646
0.890167 0.589783 0.232849
0.968567 0.560181 0.237762
1.000000 0.534973 0.243835
1.000000 0.514313 0.250702
1.000000 0.503845 0.260010
0.357605 0.923828 0.272430
0.397827 0.964569 0.287872
0.456268 0.983765 0.301819
0.506470 0.984680 0.304993
0.569336 0.985718 0.309296
0.645844 0.987366 0.315247
0.735870 0.989624 0.323395
0.839600 0.992615 0.333679
0.955597 0.996490 0.346954
0.991974 0.925262 0.331207
0.983978 0.820679 0.302094
0.977600 0.726654 0.277283
0.972900 0.642609 0.256622
1.000000 0.615753 0.261047
1.000000 0.591736 0.266083
1.000000 0.573059 0.273010
0.390625 0.994659 0.297638
0.431641 1.000000 0.313202
0.489777 1.000000 0.327698
0.539612 1.000000 0.330841
0.602112 1.000000 0.335022
0.677582 1.000000 0.340759
0.767029 1.000000 0.348541
0.870026 1.000000 0.358643
0.985474 1.000000 0.371368
1.000000 1.000000 0.375397
1.000000 0.946503 0.345367
1.000000 0.851440 0.319244
1.000000 0.766357 0.297058
1.000000 0.690399 0.278412
1.000000 0.663696 0.281799
1.000000 0.637817 0.286163
0.420624 1.000000 0.320251
0.461548 1.000000 0.335815
0.519379 1.000000 0.348297
0.568420 1.000000 0.351379
0.629120 1.000000 0.355438
0.702850 1.000000 0.360992
0.789795 1.000000 0.368378
0.890167 1.000000 0.377960
1.000000 1.000000 0.389954
1.000000 1.000000 0.402710
1.000000 1.000000 0.381256
1.000000 0.954895 0.355225
1.000000 0.870819 0.332733
1.000000 0.795929 0.313324
1.000000 0.729340 0.296997
1.000000 0.696442 0.299011
0.446442 1.000000 0.340088
0.487152 1.000000 0.347076
0.544220 1.000000 0.357880
0.589508 1.000000 0.360748
0.645386 1.000000 0.364532
0.712585 1.000000 0.369659
0.791382 1.000000 0.376190
0.881775 1.000000 0.384583
0.982910 1.000000 0.395081
1.000000 1.000000 0.406067
1.000000 1.000000 0.400726
1.000000 1.000000 0.377014
1.000000 0.929993 0.356598
1.000000 0.861206 0.338715
1.000000 0.800812 0.323669
1.000000 0.748352 0.311066
0.000000 0.023682 0.107117
0.000000 0.000000 0.105774
0.004333 0.000000 0.105743
0.057434 0.000000 0.106659
0.164856 0.000000 0.174225
0.251434 0.001434 0.214172
0.338776 0.019562 0.248627
0.436829 0.042816 0.287445
0.544434 0.068420 0.330139
0.646515 0.093109 0.371277
0.738861 0.115295 0.408356
0.822968 0.135712 0.442017
0.899506 0.154175 0.473022
0.968689 0.170837 0.500977
1.000000 0.186066 0.526154
1.000000 0.199127 0.548004
0.000000 0.060638 0.109100
0.008942 0.045898 0.115204
0.013733 0.005096 0.113586
0.074249 0.008148 0.114960
0.186584 0.015533 0.182373
0.268372 0.023621 0.211243
0.361603 0.036957 0.244385
0.466125 0.055511 0.282166
0.581024 0.078369 0.324066
0.685791 0.102509 0.363556
0.778290 0.124939 0.399231
0.862518 0.145233 0.432343
0.939148 0.163696 0.462433
1.000000 0.180664 0.489990
1.000000 0.195618 0.514832
1.000000 0.208130 0.535492
0.000000 0.107971 0.112610
0.017334 0.099060 0.118622
0.056549 0.077484 0.114899
0.092529 0.055878 0.114594
0.184784 0.058228 0.161774
0.266144 0.062256 0.190735
0.359009 0.070404 0.223907
0.463440 0.083282 0.261627
0.578156 0.101196 0.303467
0.686981 0.120941 0.343414
0.785736 0.140381 0.379608
0.875549 0.159149 0.412842
0.957153 0.176666 0.443298
1.000000 0.192688 0.470795
1.000000 0.207367 0.496124
1.000000 0.221924 0.520325
0.000000 0.113007 0.066345
0.021393 0.120392 0.081451
0.061371 0.118103 0.096802
0.116089 0.116089 0.116089
0.183960 0.114868 0.139648
0.264221 0.115417 0.167908
0.356567 0.118683 0.200531
0.460419 0.125641 0.237976
0.574890 0.137207 0.279633
0.683746 0.151031 0.319305
0.782166 0.166107 0.355591
0.871948 0.181030 0.388794
0.953430 0.195679 0.419159
1.000000 0.209808 0.446716
1.000000 0.223969 0.472534
1.000000 0.246796 0.502350
0.010437 0.180817 0.057739
0.035065 0.192627 0.066589
0.069489 0.189972 0.079559
0.144775 0.187927 0.120636
0.187195 0.161682 0.119659
0.264984 0.130585 0.116852
0.356567 0.118683 0.134583
0.460419 0.125641 0.172058
0.574890 0.137207 0.213898
0.683746 0.151031 0.254059
0.782166 0.166107 0.290649
0.871948 0.181030 0.324005
0.953430 0.195679 0.354462
1.000000 0.209808 0.382111
1.000000 0.223969 0.408752
1.000000 0.246796 0.443695
0.036896 0.259308 0.059357
0.055786 0.276581 0.064209
0.096283 0.273743 0.084442
0.178955 0.271576 0.130341
0.248810 0.273651 0.134277
0.269836 0.214905 0.126892
0.358856 0.179993 0.125153
0.461182 0.148163 0.127747
0.574890 0.137207 0.147705
0.683746 0.151031 0.187317
0.782166 0.166107 0.223480
0.871948 0.181030 0.256561
0.953430 0.195679 0.286896
1.000000 0.209808 0.314392
1.000000 0.223969 0.341461
1.000000 0.246796 0.380432
0.067780 0.348938 0.070923
0.092194 0.372070 0.083496
0.138306 0.369507 0.106476
0.218689 0.367096 0.145660
0.287018 0.368652 0.150024
0.369385 0.371552 0.156311
0.364166 0.275208 0.138641
0.464203 0.236603 0.138458
0.576508 0.201630 0.143768
0.684265 0.178406 0.153748
0.782196 0.168091 0.166260
0.871948 0.181030 0.195221
0.953430 0.195679 0.223969
1.000000 0.209808 0.250122
1.000000 0.223969 0.276428
1.000000 0.246796 0.316193
0.113708 0.449188 0.103088
